X:4721
L:1/8
M:6/8
K:G
 D |: G2 G G2 g | dBG GAB | cde dcB | AFE DEF | G2 G G2 g | dBG GAB | cBc DEF | G2 G G2 :| B | 
 dBd dBd | gag gfe | dBd dcB | AFD D2 (B/c/) | dBd dBd | gag gfe | dcB AGF | GAG G2 (B/c/) | 
 dBd dBd | gag gfe | dgd BdB | AFD D2 (B/c/) | dBd ece | fdf gfe | dcB Agf | g2 g gab ||

